Catalina-light/actions/22/mail-send.svg

<?xml version="1.0" encoding="UTF-8" standalone="no"?>
<svg
   xmlns:dc="http://purl.org/dc/elements/1.1/"
   xmlns:cc="http://creativecommons.org/ns#"
   xmlns:rdf="http://www.w3.org/1999/02/22-rdf-syntax-ns#"
   xmlns:svg="http://www.w3.org/2000/svg"
   xmlns="http://www.w3.org/2000/svg"
   xmlns:sodipodi="http://sodipodi.sourceforge.net/DTD/sodipodi-0.dtd"
   xmlns:inkscape="http://www.inkscape.org/namespaces/inkscape"
   width="22"
   height="22"
   version="1.1"
   id="svg4"
   sodipodi:docname="mail-send.svg"
   inkscape:version="0.92.4 (unknown)">
  <metadata
     id="metadata10">
    <rdf:RDF>
      <cc:Work
         rdf:about="">
        <dc:format>image/svg+xml</dc:format>
        <dc:type
           rdf:resource="http://purl.org/dc/dcmitype/StillImage" />
        <dc:title></dc:title>
      </cc:Work>
    </rdf:RDF>
  </metadata>
  <defs
     id="defs8" />
  <sodipodi:namedview
     pagecolor="#ffffff"
     bordercolor="#666666"
     borderopacity="1"
     objecttolerance="10"
     gridtolerance="10"
     guidetolerance="10"
     inkscape:pageopacity="0"
     inkscape:pageshadow="2"
     inkscape:window-width="1920"
     inkscape:window-height="1015"
     id="namedview6"
     showgrid="false"
     inkscape:zoom="29.5"
     inkscape:cx="5.579891"
     inkscape:cy="10.641458"
     inkscape:window-x="0"
     inkscape:window-y="27"
     inkscape:window-maximized="1"
     inkscape:current-layer="svg4" />
  <path
     style="overflow:visible;fill:#000000;fill-opacity:0.07999998;stroke-width:1.34915721"
     d="M 18.027117,3.9642787 3.7134034,10.035485 8.3511311,12.351714 c 2.0817499,-1.933342 7.0867219,-5.7902651 8.7299949,-7.433539 -1.643273,1.6432739 -5.50553,6.650881 -7.4361742,8.732631 l 2.3214992,4.645632 6.063301,-14.3321593 z"
     id="path817"
     inkscape:connector-curvature="0" />
  <path
     d="M 20.421661,1.545261 0.67,10.024714 l 7.5336936,3.764148 3.7641484,7.529646 0.0094,0.0081 0.0054,0.0054 8.465961,-19.7813424 -0.0054,-0.0027 h -0.0081 -0.0054 c -0.0016,-0.0013 -0.0034,-0.00222 -0.0054,-0.0027 z M 18.029605,3.9642998 11.966493,18.296396 9.6459426,13.651248 C 11.576587,11.569499 15.437874,6.5614273 17.081148,4.9181539 15.437874,6.5614273 10.43385,10.418668 8.3521009,12.35201 L 3.7123494,10.035507 18.028256,3.9642998 Z"
     overflow="visible"
     id="path2"
     inkscape:connector-curvature="0"
     style="overflow:visible;fill:#000000;fill-opacity:0.57983195;stroke-width:1.34915721"
     sodipodi:nodetypes="cccccccccccccccccccc" />
</svg>

<svg width="22" height="22" version="1.1" xmlns="http://www.w3.org/2000/svg">
<path d="m18.027 3.9643-14.314 6.0712 4.6377 2.3162c2.0817-1.9333 7.0867-5.7903 8.73-7.4335-1.6433 1.6433-5.5055 6.6509-7.4362 8.7326l2.3215 4.6456 6.0633-14.332z" fill-opacity=".08" stroke-width="1.3492"/>
<path d="m20.422 1.5453-19.752 8.4795 7.5337 3.7641 3.7641 7.5296 0.0094 0.0081 0.0054 0.0054 8.466-19.781-0.0054-0.0027h-0.0135c-0.0016-0.0013-0.0034-0.00222-0.0054-0.0027zm-2.3921 2.419-6.0631 14.332-2.3206-4.6451c1.9306-2.0817 5.7919-7.0898 7.4352-8.7331-1.6433 1.6433-6.6473 5.5005-8.729 7.4339l-4.6398-2.3165 14.316-6.0712z" fill-opacity=".57983" overflow="visible" stroke-width="1.3492"/>
</svg>
